src/assets/icons/joke.svg

<?xml version="1.0" encoding="UTF-8"?>
<svg width="29px" height="29px" viewBox="0 0 29 29" version="1.1" xmlns="http://www.w3.org/2000/svg" xmlns:xlink="http://www.w3.org/1999/xlink">
    <!-- Generator: sketchtool 41.2 (35397) - http://www.bohemiancoding.com/sketch -->
    <title>FF52058F-A9BF-4A98-B6A4-568F57C12028</title>
    <desc>Created with sketchtool.</desc>
    <defs></defs>
    <g id="Report" stroke="none" stroke-width="1" fill="none" fill-rule="evenodd">
        <g id="MVP-1.3---Report--Listing" transform="translate(-874.000000, -464.000000)" fill="#333333">
            <g id="Overlay-Report-Listing" transform="translate(97.000000, 186.000000)">
                <g id="Group" transform="translate(461.000000, 262.000000)">
                    <path d="M330.338761,35.4901866 C327.973313,35.4901866 325.90479,33.8107386 325.420722,31.4964848 C325.418731,31.4868148 325.421576,31.4760072 325.427833,31.4680436 C325.434659,31.4600801 325.444613,31.4549607 325.454852,31.4549607 L335.222669,31.4549607 C335.233477,31.4549607 335.243431,31.4597957 335.250257,31.4680436 C335.256514,31.4760072 335.259074,31.4865304 335.256799,31.4964848 C334.772731,33.8107386 332.704208,35.4901866 330.338761,35.4901866 M330.199228,16 C322.357159,16 316,22.3571588 316,30.1992285 C316,38.0412981 322.357159,44.3984569 330.199228,44.3984569 C338.041298,44.3984569 344.398457,38.0412981 344.398457,30.1992285 C344.398457,22.3571588 338.041298,16 330.199228,16 Z M330.199228,42.6919898 C323.31079,42.6919898 317.706467,37.0876674 317.706467,30.1992285 C317.706467,23.3105051 323.31079,17.7064671 330.199228,17.7064671 C337.087667,17.7064671 342.69199,23.3105051 342.69199,30.1992285 C342.69199,37.0876674 337.087667,42.6919898 330.199228,42.6919898 Z M335.222669,29.748778 L325.454852,29.748778 C324.928975,29.748778 324.436375,29.9828484 324.103899,30.3915473 C323.771422,30.800815 323.642584,31.330673 323.750375,31.8460261 C324.398833,34.9463925 327.169567,37.1966538 330.338761,37.1966538 C333.507954,37.1966538 336.278688,34.9463925 336.927146,31.8457417 C337.034938,31.3298198 336.906099,30.7996774 336.573907,30.3909785 C336.24143,29.9828484 335.74883,29.748778 335.222669,29.748778 Z M337.964536,26.3357016 L336.611307,26.3357016 L337.568066,25.3789424 C337.901396,25.0458969 337.901396,24.5052312 337.568066,24.1724701 C337.235021,23.8391402 336.694924,23.8391402 336.361594,24.1724701 L333.949503,26.5845614 C333.909401,26.6246634 333.873281,26.6687471 333.841711,26.7159593 C333.828628,26.7355837 333.819811,26.757199 333.808435,26.7776766 C333.792792,26.8055489 333.776012,26.8328523 333.763498,26.8627155 C333.752121,26.8903034 333.745864,26.9190289 333.737332,26.9471856 C333.729937,26.9722138 333.720267,26.9961044 333.715148,27.0219858 C333.693248,27.1320529 333.693248,27.2458174 333.715148,27.3558845 C333.720267,27.3817659 333.729937,27.4056565 333.737332,27.4306847 C333.745864,27.4591258 333.752121,27.4878513 333.763498,27.5151548 C333.776012,27.545018 333.792792,27.5723214 333.808435,27.6004781 C333.819811,27.6209557 333.828628,27.6422866 333.841711,27.6619109 C333.904281,27.7557666 333.985054,27.836255 334.07891,27.8988255 C334.097681,27.9113396 334.118159,27.9198719 334.137783,27.9306795 C334.166509,27.946891 334.194665,27.96424 334.225666,27.9770385 C334.252401,27.9881306 334.280557,27.994672 334.30843,28.0026356 C334.333742,28.0103147 334.358202,28.0199846 334.384652,28.0253884 C334.439828,28.0361961 334.495572,28.0421687 334.551601,28.0421687 L337.964536,28.0421687 C338.435805,28.0421687 338.817769,27.6602045 338.817769,27.1889351 C338.817769,26.7176658 338.435805,26.3357016 337.964536,26.3357016 Z M325.901804,28.02536 C325.92797,28.0202406 325.952429,28.0102862 325.977742,28.0028915 C326.005614,27.9946436 326.033771,27.9881021 326.06079,27.9770101 C326.091506,27.9642116 326.119663,27.9471469 326.148388,27.9309355 C326.168013,27.9201279 326.18849,27.9115955 326.207546,27.898797 C326.301402,27.8362266 326.382174,27.7557382 326.444745,27.6618825 C326.457828,27.6422581 326.466644,27.6209273 326.478021,27.6004497 C326.493664,27.572293 326.510444,27.5452739 326.522958,27.5151263 C326.534334,27.4878229 326.540591,27.4590973 326.549124,27.4306562 C326.556518,27.4059124 326.566188,27.3817375 326.571308,27.3558561 C326.593207,27.2457889 326.593207,27.1320245 326.571308,27.0219573 C326.566188,26.9960759 326.556518,26.9721854 326.549124,26.9471572 C326.540591,26.9190005 326.534334,26.890275 326.522958,26.8626871 C326.510444,26.8328239 326.493664,26.8055204 326.478021,26.7776481 C326.466644,26.7571705 326.457828,26.7358397 326.444745,26.7159309 C326.413175,26.6687186 326.377055,26.6246349 326.336953,26.5845329 L323.924862,24.1724417 C323.591532,23.8391118 323.051435,23.8391118 322.718389,24.1724417 C322.38506,24.5054872 322.38506,25.0458684 322.718389,25.3789139 L323.675149,26.3356731 L322.32192,26.3356731 C321.850651,26.3356731 321.468687,26.7176374 321.468687,27.1889067 C321.468687,27.660176 321.850651,28.0421403 322.32192,28.0421403 L325.734855,28.0421403 C325.790884,28.0421403 325.846628,28.036452 325.901804,28.02536 Z" id="report_joke"></path>
                </g>
            </g>
        </g>
    </g>
</svg>

<svg width="29" height="29" viewBox="0 0 29 29" xmlns="http://www.w3.org/2000/svg"><g id="Report" fill="none" fill-rule="evenodd"><g id="MVP-1.3---Report--Listing" transform="translate(-874 -464)" fill="#333"><g id="Overlay-Report-Listing" transform="translate(97 186)"><g id="Group" transform="translate(461 262)"><path d="M330.339 35.49a5.045 5.045 0 0 1-4.918-3.994c-.002-.01 0-.02.007-.028a.036.036 0 0 1 .027-.013h9.768c.01 0 .02.005.027.013a.034.034 0 0 1 .007.028 5.045 5.045 0 0 1-4.918 3.994m-.14-19.49C322.357 16 316 22.357 316 30.2c0 7.841 6.357 14.198 14.2 14.198 7.841 0 14.198-6.357 14.198-14.199S338.041 16 330.2 16zm0 26.692c-6.888 0-12.493-5.604-12.493-12.493 0-6.888 5.605-12.493 12.493-12.493 6.889 0 12.493 5.605 12.493 12.493 0 6.889-5.604 12.493-12.493 12.493zm5.024-12.943h-9.768c-.526 0-1.019.234-1.351.643-.333.409-.461.939-.354 1.454.649 3.1 3.42 5.35 6.589 5.35 3.169 0 5.94-2.25 6.588-5.35a1.735 1.735 0 0 0-.353-1.455 1.736 1.736 0 0 0-1.351-.642zm2.742-3.413h-1.354l.957-.957a.853.853 0 1 0-1.206-1.207l-2.412 2.413a.869.869 0 0 0-.108.131c-.013.02-.022.041-.034.062-.015.028-.032.055-.045.085-.01.027-.017.056-.026.084-.007.025-.017.05-.022.075a.857.857 0 0 0 0 .334c.005.026.015.05.022.075.009.028.015.057.026.084.013.03.03.057.045.085.012.021.02.042.034.062a.855.855 0 0 0 .237.237c.019.012.04.02.059.032.029.016.057.033.088.046.026.011.055.018.082.026.026.007.05.017.077.022.055.011.11.017.167.017h3.413a.853.853 0 1 0 0-1.706zm-12.063 1.69c.026-.006.05-.016.076-.023.028-.008.056-.015.083-.026.03-.013.059-.03.087-.046.02-.01.04-.02.06-.032a.855.855 0 0 0 .237-.237c.013-.02.022-.041.033-.062.016-.028.032-.055.045-.085.011-.027.018-.056.026-.084.008-.025.017-.05.022-.075a.857.857 0 0 0 0-.334c-.005-.026-.014-.05-.022-.075-.008-.028-.015-.057-.026-.084-.013-.03-.03-.057-.045-.085-.011-.02-.02-.042-.033-.062a.869.869 0 0 0-.108-.131l-2.412-2.413a.853.853 0 1 0-1.207 1.207l.957.957h-1.353a.853.853 0 1 0 0 1.706h3.413a.846.846 0 0 0 .167-.017z" id="report_joke"/></g></g></g></g></svg>
